!!!OTL: Graf und Nonne (Die Nonne) Du hast gesagt, du heiratst mich,
!!!ARE: Europa, Suedosteuropa, Jugoslavija, Gottschee
!!!YOR: 8, S. 288
!!    1933 gedruckt
!!!SCT: Q0155C.
!!!YEM: Copyright 1995, estate of Helmut Schaffrath.
**kern
*ICvox
*Ivox
!! Mixed meters:  6/8; 4/4
*M4/4
*k[f#]
*G:
{8d
=1
4b
8a
4g
8d
=2
4d
8g
4g}
{8g
=3
4a
8a
4a
8a
=4
4b
4.r}
{8d
=5
4b
8b
4b
8b
=6
4b
8dd
4cc}
{8b
=7
4a
8g
4f#
8e
=8
4d
8g
4g}
{8d
=9
4g
8a
8b
4b
8a
8b
=10
4g
4.r}
==
!!!AGN: Ballade, Standesunterschied, vergebliche Werbung, Liebes - Lied
!!!ONB: ESAC (Essen Associative Code) Database: BALLADE
!!!AMT: irregular
!!!AIN: vox
!!!EED: Helmut Schaffrath
!!!EEV: 1.0
*-
